static/assets/img/icons/theme/code/stop.svg

<svg height="24" viewBox="0 0 24 24" width="24" xmlns="http://www.w3.org/2000/svg"><g fill="none" fill-rule="evenodd"><path d="m0 0h24v24h-24z" opacity="0"/><path d="m12 22c-5.5228475 0-10-4.4771525-10-10s4.4771525-10 10-10 10 4.4771525 10 10-4.4771525 10-10 10zm0-2c4.418278 0 8-3.581722 8-8s-3.581722-8-8-8-8 3.581722-8 8 3.581722 8 8 8zm7.0710678-15.07106781c.3905243.39052429.3905243 1.02368927 0 1.41421356l-12.72792205 12.72792205c-.39052429.3905243-1.02368927.3905243-1.41421356 0-.39052429-.3905243-.39052429-1.0236893 0-1.4142136l12.72792201-12.72792201c.3905243-.39052429 1.0236893-.39052429 1.4142136 0z" fill="#000" fill-rule="nonzero" opacity=".3"/></g></svg>

<svg width="24px" height="24px" viewBox="0 0 24 24" version="1.1" xmlns="http://www.w3.org/2000/svg" xmlns:xlink="http://www.w3.org/1999/xlink">
    <title>Icon For Stop</title>
    <g stroke="none" stroke-width="1" fill="none" fill-rule="evenodd">
        <rect opacity="0" x="0" y="0" width="24" height="24"></rect>
        <path d="M12,22 C6.4771525,22 2,17.5228475 2,12 C2,6.4771525 6.4771525,2 12,2 C17.5228475,2 22,6.4771525 22,12 C22,17.5228475 17.5228475,22 12,22 Z M12,20 C16.418278,20 20,16.418278 20,12 C20,7.581722 16.418278,4 12,4 C7.581722,4 4,7.581722 4,12 C4,16.418278 7.581722,20 12,20 Z M19.0710678,4.92893219 L19.0710678,4.92893219 C19.4615921,5.31945648 19.4615921,5.95262146 19.0710678,6.34314575 L6.34314575,19.0710678 C5.95262146,19.4615921 5.31945648,19.4615921 4.92893219,19.0710678 L4.92893219,19.0710678 C4.5384079,18.6805435 4.5384079,18.0473785 4.92893219,17.6568542 L17.6568542,4.92893219 C18.0473785,4.5384079 18.6805435,4.5384079 19.0710678,4.92893219 Z" fill="#000000" fill-rule="nonzero" opacity="0.3"></path>
    </g>
</svg>
